X:1
T:Title
%%score { ( 1 4 5 ) | ( 2 3 ) }
L:1/8
Q:1/4=106
M:3/4
K:C
V:1 treble nm="Grand Piano"
V:4 treble 
V:5 treble 
V:2 bass 
V:3 bass 
V:1
 [CE]2 F2 [_E^F]2 | [EG]4 [Ge]2 | d2 z2 [CE]2 | [EG]3 ^F [D=F]2 | [B,D]2 E2 [B,DF]2 | %5
w: D.~B.~Towner * *|||||
 [DFB]4 [B,FA]2 | [B,FG]4 [B,DF]G | E6 | E2 G2 [Ec]2 | [Ge]4 [DFB]2 | d2 c2 EA | [B,^G]4 [CA]2 | %12
w: |||||||
 [DGB]4 [CGc]2 | d4 G2 | B3 c AB |[M:13/16] G/-G/-G/-G/-G/-G/-G/-G/-G/-G-<G |[M:3/4] G4 E2 | %17
w: |||||
 (3:2:2[CE-G-]2 [CE-G-] [EG]4 | c4 d2 | [Ge]6[K:bass] | [Ge]4 z2 | d2 c2 ^F2 | G4 z2 | %23
w: ||||||
[M:7/4] [EG]6 z2 z2 z4 |[M:3/4] E2 F2 ^F2 | G4 c2 | [DB]2 [Ec]2 [Fd]2 | [Ec]6 |] %28
w: |||||
V:2
 z2 D2 [C,C]2 | [C,C]4 [C,C]2 | z2[K:treble] c2 A,^G, | G,2 z _E[K:bass] G,2 | z2 C2 G,2 | %5
 G,4 G,2 | z2 z A z [G,B,] | [C,G,C]6 | [G,C]2 [CE]2 [C,C]2 | [C,C]4 G,^G, | [A,CE]4 CE | %11
 z2 D2 A,2 | G,2 F,2 E,2 | [G,B,F]4 [G,B,F]2 | [D,D]3- [D,A,D] CD | %15
[M:13/16] z/ z/ z A,-<A,B,/-B,-<B, |[M:3/4] E4 C2 | (3C,E,G, C,4 | A4 ^G2 | (3[C,C-]CG, C,4 | %20
 C4[K:treble] [^G,DF]2 | [A,CE]4 [^G,C_E]2 | [CE]2 B,2[K:bass] [G,D]2 |[M:7/4] [C,C]6 z2 z2 z4 | %24
[M:3/4] [A,C]2 [^G,B,D]2 [G,C_E]2 | [G,CE]4 [G,E]2 | [G,,G,]4 [G,,G,]2 | [C,G,]6 |] %28
V:3
 C,4 z2 | x6 | [F,A,]4[K:treble] z2 | z2 G,2[K:bass] z2 | G,4 z2 | x6 | G,,4 G,,2 | x6 | C,4 z2 | %9
 x6 | z2 z2 A,2 | E,4 z2 | x6 | x6 | G,4 [D,^F,]2 | %15
[M:13/16] G,,/-G,,/-G,,/-G,,/-G,,/-G,,/-G,,/-G,,/-G,,/-G,,-<G,, |[M:3/4] x6 | x6 | x6 | x6 | %20
 E,2 z2[K:treble] z2 | x6 | G,4[K:bass] z2 |[M:7/4] x14 |[M:3/4] x6 | x6 | x6 | x6 |] %28
V:4
 x6 | x6 | F4 z2 | C2 z2 z2 | x6 | x6 | x6 | x6 | x6 | x6 | x6 | E2 z2 z2 | x6 | x6 | x6 | %15
[M:13/16] [G,B,]-<[G,B,]C-<CDF3/2 |[M:3/4] x6 | z2 C4 | x6 | z2[K:bass] C4 | z2 G,2 B2 | x6 | %22
 z2 D2 [FG]2 |[M:7/4] x14 |[M:3/4] x6 | x6 | x6 | x6 |] %28
V:5
 x6 | x6 | x6 | x6 | x6 | x6 | x6 | x6 | x6 | x6 | x6 | x6 | x6 | x6 | x6 |[M:13/16] x13/2 | %16
[M:3/4] x6 | x6 | x6 | (3z[K:bass] E,C z2 z2 | x6 | x6 | x6 |[M:7/4] x14 |[M:3/4] x6 | x6 | x6 | %27
 x6 |] %28

